src/icons/svg/star.svg

<svg width="20" height="20" viewBox="0 0 20 20" fill="none" xmlns="http://www.w3.org/2000/svg">
<path d="M9.553 3.88421C9.7383 3.51768 10.2617 3.51768 10.447 3.88421L12.0452 7.04567C12.119 7.19167 12.2595 7.29242 12.4214 7.31554L15.9762 7.82287C16.3906 7.88201 16.5539 8.39319 16.2506 8.68166L13.6946 11.1125C13.5731 11.2281 13.5174 11.3969 13.5465 11.5621L14.1517 15.0075C14.2233 15.4151 13.7977 15.7287 13.4296 15.5397L10.2288 13.8961C10.0852 13.8224 9.91482 13.8224 9.77121 13.8961L6.57045 15.5397C6.20231 15.7287 5.77675 15.4151 5.84834 15.0075L6.45354 11.5621C6.48256 11.3969 6.42694 11.2281 6.30539 11.1125L3.74937 8.68165C3.44606 8.39319 3.60939 7.88201 4.02378 7.82287L7.57855 7.31554C7.74051 7.29242 7.88097 7.19167 7.95478 7.04567L9.553 3.88421Z" stroke="#19191C" stroke-width="1.20208" stroke-linecap="round" stroke-linejoin="round"/>
</svg>

<svg xmlns="http://www.w3.org/2000/svg" width="20" height="20" fill="none"><path stroke="#19191C" stroke-linecap="round" stroke-linejoin="round" stroke-width="1.202" d="M9.553 3.884a.5.5 0 0 1 .894 0l1.598 3.162a.5.5 0 0 0 .376.27l3.555.507a.5.5 0 0 1 .275.859l-2.556 2.43a.5.5 0 0 0-.149.45l.606 3.446a.5.5 0 0 1-.722.532l-3.201-1.644a.5.5 0 0 0-.458 0l-3.2 1.644a.5.5 0 0 1-.723-.532l.606-3.446a.5.5 0 0 0-.149-.45L3.75 8.683a.5.5 0 0 1 .275-.86l3.555-.506a.5.5 0 0 0 .376-.27z"/></svg>
